X:35
T:L'Piston
R:
S:
N:
A:Champagne
G:
O:France
Z:<anamnese@laposte.net>
M:3/4
L:1/8
Q:1/4=135
K:G
df df df | d2 de ee | de f2 d2 | df df df | d2 de ee | f2 e2 d2 |
d g2 g f2 | de ee de | f2 d2d g-|g g f2 fe | ee fe d2 ||
